Obsidian-SemiLight/actions/24s/format-precision-less.svg

<svg viewBox="0 0 24 24" xmlns="http://www.w3.org/2000/svg"><path d="m16.5 4c-1.933 0-3.5 1.7909-3.5 4v1 2c0 2.2091 1.567 4 3.5 4s3.5-1.7909 3.5-4v-2-1c0-2.2091-1.567-4-3.5-4zm0 1c1.38071 0 2.5 1.3431 2.5 3v3c0 1.6569-1.11929 3-2.5 3s-2.5-1.3431-2.5-3v-3c0-1.6569 1.11929-3 2.5-3z" fill="#4d4d4d" fill-opacity=".5"/><path d="m8.5 4c-1.933 0-3.5 1.7909-3.5 4v1 2c0 2.2091 1.567 4 3.5 4s3.5-1.7909 3.5-4v-2-1c0-2.2091-1.567-4-3.5-4zm0 1c1.38071 0 2.5 1.34315 2.5 3v3c0 1.65685-1.11929 3-2.5 3s-2.5-1.34315-2.5-3v-3c0-1.65685 1.11929-3 2.5-3zm-5.5 9v1h1v-1z" fill="#4d4d4d"/><path d="m15.085938 16-.707032.707031 1.414063 1.414063-1.414063 1.414062.707032.707032 1.414062-1.414063 1.414062 1.414063.707032-.707032-1.414063-1.414062 1.414063-1.414063-.707032-.707031-1.414062 1.414062z" fill="#da4453"/></svg>

<svg xmlns="http://www.w3.org/2000/svg" viewBox="0 0 24 24">
  <defs id="defs3051">
    <style type="text/css" id="current-color-scheme">
      .ColorScheme-Text {
        color:#4d4d4d;
      }
      .ColorScheme-NegativeText {
        color:#da4453;
      }
      </style>
  </defs>
  <path 
     style="fill:currentColor;fill-opacity:0.5;stroke:none" 
     d="M 16.5 4 C 14.567 4 13 5.7909 13 8 L 13 9 L 13 11 C 13 13.2091 14.567 15 16.5 15 C 18.433 15 20 13.2091 20 11 L 20 9 L 20 8 C 20 5.7909 18.433 4 16.5 4 z M 16.5 5 C 17.88071 5 19 6.3431 19 8 L 19 11 C 19 12.6569 17.88071 14 16.5 14 C 15.11929 14 14 12.6569 14 11 L 14 8 C 14 6.3431 15.11929 5 16.5 5 z "
     class="ColorScheme-Text"/>
  <path 
     style="fill:currentColor;fill-opacity:1;stroke:none" 
     d="M 8.5 4 C 6.567 4 5 5.7909 5 8 L 5 9 L 5 11 C 5 13.2091 6.567 15 8.5 15 C 10.433 15 12 13.2091 12 11 L 12 9 L 12 8 C 12 5.7909 10.433 4 8.5 4 z M 8.5 5 C 9.88071 5 11 6.34315 11 8 L 11 11 C 11 12.65685 9.88071 14 8.5 14 C 7.11929 14 6 12.65685 6 11 L 6 8 C 6 6.34315 7.11929 5 8.5 5 z M 3 14 L 3 15 L 4 15 L 4 14 L 3 14 z "
     class="ColorScheme-Text"/>
  <path
     style="fill:currentColor;fill-opacity:1;stroke:none" 
     d="M 15.085938 16 L 14.378906 16.707031 L 15.792969 18.121094 L 14.378906 19.535156 L 15.085938 20.242188 L 16.5 18.828125 L 17.914062 20.242188 L 18.621094 19.535156 L 17.207031 18.121094 L 18.621094 16.707031 L 17.914062 16 L 16.5 17.414062 L 15.085938 16 z "
     class="ColorScheme-NegativeText"
     />
</svg>
